app/assets/images/payment_icons/bancnet.svg

<svg xmlns="http://www.w3.org/2000/svg" width="38" height="24" viewBox="0 0 38 24" fill="none" aria-labelledby="pi-bancnet" role="img"><title id="pi-bancnet">Banc Net</title><rect width="38" height="24" fill="white"/><path d="M7.19299 8.965H10.155C10.568 8.965 11.163 9.251 10.725 10.05C10.5799 10.3247 10.3753 10.5635 10.1262 10.7491C9.87706 10.9348 9.58969 11.0625 9.28499 11.123L9.27799 11.137C9.83399 11.197 10.038 11.602 9.69899 12.222C9.16699 13.194 8.27499 13.409 7.23899 13.409H4.75999L7.19299 8.965ZM6.66499 12.535H7.26099C7.68599 12.535 8.10299 12.529 8.36499 12.048C8.61799 11.59 8.21999 11.59 7.84299 11.59H7.18299L6.66499 12.535ZM7.66099 10.717H8.04499C8.44199 10.717 8.91399 10.75 9.21699 10.197C9.41399 9.837 8.96599 9.837 8.64599 9.837H8.14299L7.66099 10.717ZM12.343 11.922C11.989 12.063 11.193 12.142 10.988 12.515C10.875 12.722 11.041 12.781 11.247 12.781C11.375 12.781 11.506 12.763 11.649 12.722L11.053 13.449C10.861 13.463 10.654 13.488 10.47 13.488C9.61699 13.488 9.31799 13.101 9.66899 12.461C10.384 11.156 12.495 11.569 12.818 10.976C12.938 10.757 12.709 10.71 12.517 10.71C12.02 10.71 11.418 10.862 10.875 11.023L11.42 10.21C12.04 10.09 12.649 10.004 13.245 10.004C14.495 10.004 14.455 10.53 14.258 10.89L12.879 13.409H11.529L12.343 11.922ZM15.934 10.564L15.941 10.578C16.587 10.151 17.122 10.004 17.654 10.004C18.421 10.004 18.867 10.304 18.4 11.157L17.168 13.409H15.818L16.789 11.636C16.949 11.344 16.971 11.044 16.544 11.044C16.182 11.044 15.614 11.277 15.081 12.25L14.447 13.41H13.098L14.918 10.085H16.196L15.934 10.564ZM20.271 13.369C19.886 13.449 19.517 13.486 19.163 13.486C18.005 13.486 17.573 12.902 18.229 11.702C18.697 10.849 19.593 10.003 20.9 10.003C21.412 10.003 21.775 10.043 22.088 10.128L21.672 11.135C21.412 11.042 21.147 10.955 20.84 10.955C20.279 10.955 19.824 11.255 19.557 11.742C19.266 12.275 19.437 12.533 19.983 12.533C20.282 12.533 20.628 12.448 20.975 12.354L20.271 13.369ZM23.066 8.965H24.828L25.064 11.856H25.078L26.662 8.965H27.967L25.535 13.41H23.795L23.508 10.571H23.494L21.941 13.41H20.632L23.066 8.965ZM29.211 13.361C28.775 13.441 28.34 13.488 27.785 13.488C26.293 13.488 26.127 12.754 26.68 11.744C27.229 10.744 28.258 10.005 29.573 10.005C30.745 10.005 31.145 10.571 30.62 11.531L30.393 11.944H27.922C27.639 12.457 28.039 12.651 28.508 12.651C28.926 12.651 29.406 12.536 29.858 12.432L29.211 13.361ZM29.418 11.336C29.633 10.944 29.533 10.75 29.191 10.75C28.808 10.75 28.449 11.043 28.253 11.336H29.418ZM33.654 10.958H32.851L32.234 12.084C32.078 12.37 32.072 12.536 32.384 12.536C32.554 12.536 32.73 12.505 32.939 12.444L32.275 13.384C31.9546 13.4532 31.6278 13.4884 31.3 13.489C30.618 13.489 30.208 13.315 30.611 12.583L31.502 10.958H30.977L31.456 10.084H31.981L32.309 9.485L33.805 9.218L33.328 10.084H34.131L33.654 10.958ZM32.051 13.752H4.57199L4.34999 14.156H31.826L32.051 13.752ZM3.86899 15.035H31.348L31.568 14.631H4.09099L3.86899 15.035Z" fill="#FF0000"/></svg>

<svg version="1.1" xmlns="http://www.w3.org/2000/svg" x="0" y="0" width="38" height="24" viewBox="0 0 38 24" xml:space="preserve" role="img" aria-labelledby="pi-bancnet"><title id="pi-bancnet">Banc Net</title><path opacity=".07" d="M35 0H3C1.3 0 0 1.3 0 3v18c0 1.7 1.4 3 3 3h32c1.7 0 3-1.3 3-3V3c0-1.7-1.4-3-3-3z"/><path fill="#FFF" d="M35 1c1.1 0 2 .9 2 2v18c0 1.1-.9 2-2 2H3c-1.1 0-2-.9-2-2V3c0-1.1.9-2 2-2h32"/><path d="M7.193 8.965h2.962c.413 0 1.008.286.57 1.085a2.089 2.089 0 0 1-1.44 1.073l-.007.014c.556.06.76.465.421 1.085-.532.972-1.424 1.187-2.46 1.187H4.76l2.433-4.444zm-.528 3.57h.596c.425 0 .842-.006 1.104-.487.253-.458-.145-.458-.522-.458h-.66l-.518.945zm.996-1.818h.384c.397 0 .869.033 1.172-.52.197-.36-.251-.36-.571-.36h-.503l-.482.88zm4.682 1.205c-.354.141-1.15.22-1.355.593-.113.207.053.266.259.266.128 0 .259-.018.402-.059l-.596.727c-.192.014-.399.039-.583.039-.853 0-1.152-.387-.801-1.027.715-1.305 2.826-.892 3.149-1.485.12-.219-.109-.266-.301-.266-.497 0-1.099.152-1.642.313l.545-.813c.62-.12 1.229-.206 1.825-.206 1.25 0 1.21.526 1.013.886l-1.379 2.519h-1.35l.814-1.487zm3.591-1.358l.007.014c.646-.427 1.181-.574 1.713-.574.767 0 1.213.3.746 1.153l-1.232 2.252h-1.35l.971-1.773c.16-.292.182-.592-.245-.592-.362 0-.93.233-1.463 1.206l-.634 1.16h-1.349l1.82-3.325h1.278l-.262.479zm4.337 2.805c-.385.08-.754.117-1.108.117-1.158 0-1.59-.584-.934-1.784.468-.853 1.364-1.699 2.671-1.699.512 0 .875.04 1.188.125l-.416 1.007c-.26-.093-.525-.18-.832-.18-.561 0-1.016.3-1.283.787-.291.533-.12.791.426.791.299 0 .645-.085.992-.179l-.704 1.015zm2.795-4.404h1.762l.236 2.891h.014l1.584-2.891h1.305l-2.432 4.445h-1.74l-.287-2.839h-.014l-1.553 2.839h-1.309l2.434-4.445zm6.145 4.396c-.436.08-.871.127-1.426.127-1.492 0-1.658-.734-1.105-1.744.549-1 1.578-1.739 2.893-1.739 1.172 0 1.572.566 1.047 1.526l-.227.413h-2.471c-.283.513.117.707.586.707.418 0 .898-.115 1.35-.219l-.647.929zm.207-2.025c.215-.392.115-.586-.227-.586-.383 0-.742.293-.938.586h1.165zm4.236-.378h-.803l-.617 1.126c-.156.286-.162.452.15.452.17 0 .346-.031.555-.092l-.664.94a4.662 4.662 0 0 1-.975.105c-.682 0-1.092-.174-.689-.906l.891-1.625h-.525l.479-.874h.525l.328-.599 1.496-.267-.477.866h.803l-.477.874zm-1.603 2.794H4.572l-.222.404h27.476zM3.869 15.035h27.479l.22-.404H4.091z" fill="red"/></svg>
